THStack/err.svg

<svg xmlns="http://www.w3.org/2000/svg" viewBox="0 0 1200 800" preserveAspectRatio="none" width="1200" height="800">
 <title>
  ROOT canvas
 </title>
 <path d="M0,0h1200v800h-1200z" style="fill: white;"></path>
 <g>
  <svg viewBox="0 0 576 784" preserveAspectRatio="none" x="12" y="8" width="576" height="784">
   <path d="M0,0h576v784h-576z" style="fill: white;"></path>
   <g>
    <g transform="translate(58,78)">
     <title></title>
     <path d="M0,0h461v627h-461z" style="fill: white; stroke: black; stroke-width: 1;"></path>
     <svg x="0" y="0" overflow="hidden" width="461" height="627" viewBox="0 0 461 627">
      <g>
       <path d="M138,625h24M150,623v3M161,591h24M173,584v13M184,377h24M196,360v34M207,32h24M219,6v53M231,30h24M243,3v53M254,401h24M266,384v33M277,589h24M289,582v13M300,624h24M312,621v5M323,626h24M335,625v2" style="stroke: blue; stroke-width: 1;"></path>
      </g>
      <g>
       <path d="M138,626h24M150,625v2M161,604h24M173,598v11M184,463h24M196,449v27M207,241h24M219,220v42M231,214h24M243,192v44M254,481h24M266,468v26M277,599h24M289,593v12M300,624h24M312,621v5M323,626h24M335,625v2" style="stroke: rgb(204,0,255); stroke-width: 1;"></path>
      </g>
     </svg>
     <g>
      <g transform="translate(0,627)">
       <path d="M0,0h461" style="stroke: black; stroke-width: 1;"></path>
       <path d="M0,-24v24m12,-12v12m11,-12v12m12,-12v12m11,-24v24m12,-12v12m11,-12v12m12,-12v12m11,-24v24m12,-12v12m11,-12v12m12,-12v12m11,-24v24m12,-12v12m11,-12v12m12,-12v12m11,-24v24m12,-12v12m11,-12v12m12,-12v12m12,-24v24m11,-12v12m12,-12v12m11,-12v12m12,-24v24m11,-12v12m12,-12v12m11,-12v12m12,-24v24m11,-12v12m12,-12v12m11,-12v12m12,-24v24m11,-12v12m12,-12v12m11,-12v12m12,-24v24m11,-12v12m12,-12v12m11,-12v12m12,-24v24" style="stroke: black; stroke-width: 1;"></path>
       <g font-family="Arial" font-size="20" space="preserve">
        <text fill="black" text-anchor="middle" dy=".8em" transform="translate(0,5)">
         -10
        </text>
        <text fill="black" text-anchor="middle" dy=".8em" transform="translate(46,5)">
         -8
        </text>
        <text fill="black" text-anchor="middle" dy=".8em" transform="translate(92,5)">
         -6
        </text>
        <text fill="black" text-anchor="middle" dy=".8em" transform="translate(138,5)">
         -4
        </text>
        <text fill="black" text-anchor="middle" dy=".8em" transform="translate(184,5)">
         -2
        </text>
        <text fill="black" text-anchor="middle" dy=".8em" transform="translate(231,5)">
         0
        </text>
        <text fill="black" text-anchor="middle" dy=".8em" transform="translate(277,5)">
         2
        </text>
        <text fill="black" text-anchor="middle" dy=".8em" transform="translate(323,5)">
         4
        </text>
        <text fill="black" text-anchor="middle" dy=".8em" transform="translate(369,5)">
         6
        </text>
        <text fill="black" text-anchor="middle" dy=".8em" transform="translate(415,5)">
         8
        </text>
        <text fill="black" text-anchor="middle" dy=".8em" transform="translate(461,5)">
         10
        </text>
       </g>
      </g>
      <g>
       <path d="M0,0v627" style="stroke: black; stroke-width: 1;"></path>
       <path d="M17,627h-17m9,-23h-9m9,-24h-9m9,-23h-9m9,-23h-9m17,-24h-17m9,-23h-9m9,-23h-9m9,-24h-9m9,-23h-9m17,-23h-17m9,-24h-9m9,-23h-9m9,-23h-9m9,-24h-9m17,-23h-17m9,-23h-9m9,-24h-9m9,-23h-9m9,-23h-9m17,-24h-17m9,-23h-9m9,-23h-9m9,-23h-9m9,-24h-9m17,-23h-17m9,-23h-9" style="stroke: black; stroke-width: 1;"></path>
       <g font-family="Arial" font-size="20" space="preserve">
        <text fill="black" text-anchor="end" dy=".4em" transform="translate(-3,627)">
         0
        </text>
        <text fill="black" text-anchor="end" dy=".4em" transform="translate(-3,510)">
         100
        </text>
        <text fill="black" text-anchor="end" dy=".4em" transform="translate(-3,394)">
         200
        </text>
        <text fill="black" text-anchor="end" dy=".4em" transform="translate(-3,277)">
         300
        </text>
        <text fill="black" text-anchor="end" dy=".4em" transform="translate(-3,160)">
         400
        </text>
        <text fill="black" text-anchor="end" dy=".4em" transform="translate(-3,44)">
         500
        </text>
       </g>
      </g>
     </g>
    </g>
    <g transform="translate(263,4)" font-family="Arial" font-size="28" space="preserve">
     <path d="M0,0h49v43h-49z" style="fill: none;"></path>
     <text fill="black" text-anchor="middle" dy=".4em" transform="translate(25,22)">
      st1
     </text>
    </g>
   </g>
  </svg>
  <svg viewBox="0 0 576 784" preserveAspectRatio="none" x="612" y="8" width="576" height="784">
   <path d="M0,0h576v784h-576z" style="fill: white;"></path>
   <g>
    <g transform="translate(58,78)">
     <title></title>
     <path d="M0,0h461v627h-461z" style="fill: white; stroke: black; stroke-width: 1;"></path>
     <svg x="0" y="0" overflow="hidden" width="461" height="627" viewBox="0 0 461 627">
      <g>
       <path d="M0,627h138v-2h23v-34h23v-214h23v-345h24v-2h23v371h23v188h23v35h23v2h23v1h115L461,630L0,630Z" style="stroke-linejoin: miter; stroke: blue; stroke-width: 1; fill: blue;"></path>
      </g>
      <g>
       <path d="M0,627h138v-1h23v-22h23v-141h23v-222h24v-27h23v267h23v118h23v25h23v2h23v1h115L461,630L0,630Z" style="stroke-linejoin: miter; stroke: rgb(204,0,255); stroke-width: 1; fill: rgb(204,0,255);"></path>
      </g>
     </svg>
     <g>
      <g transform="translate(0,627)">
       <path d="M0,0h461" style="stroke: black; stroke-width: 1;"></path>
       <path d="M0,-24v24m12,-12v12m11,-12v12m12,-12v12m11,-24v24m12,-12v12m11,-12v12m12,-12v12m11,-24v24m12,-12v12m11,-12v12m12,-12v12m11,-24v24m12,-12v12m11,-12v12m12,-12v12m11,-24v24m12,-12v12m11,-12v12m12,-12v12m12,-24v24m11,-12v12m12,-12v12m11,-12v12m12,-24v24m11,-12v12m12,-12v12m11,-12v12m12,-24v24m11,-12v12m12,-12v12m11,-12v12m12,-24v24m11,-12v12m12,-12v12m11,-12v12m12,-24v24m11,-12v12m12,-12v12m11,-12v12m12,-24v24" style="stroke: black; stroke-width: 1;"></path>
       <g font-family="Arial" font-size="20" space="preserve">
        <text fill="black" text-anchor="middle" dy=".8em" transform="translate(0,5)">
         -10
        </text>
        <text fill="black" text-anchor="middle" dy=".8em" transform="translate(46,5)">
         -8
        </text>
        <text fill="black" text-anchor="middle" dy=".8em" transform="translate(92,5)">
         -6
        </text>
        <text fill="black" text-anchor="middle" dy=".8em" transform="translate(138,5)">
         -4
        </text>
        <text fill="black" text-anchor="middle" dy=".8em" transform="translate(184,5)">
         -2
        </text>
        <text fill="black" text-anchor="middle" dy=".8em" transform="translate(231,5)">
         0
        </text>
        <text fill="black" text-anchor="middle" dy=".8em" transform="translate(277,5)">
         2
        </text>
        <text fill="black" text-anchor="middle" dy=".8em" transform="translate(323,5)">
         4
        </text>
        <text fill="black" text-anchor="middle" dy=".8em" transform="translate(369,5)">
         6
        </text>
        <text fill="black" text-anchor="middle" dy=".8em" transform="translate(415,5)">
         8
        </text>
        <text fill="black" text-anchor="middle" dy=".8em" transform="translate(461,5)">
         10
        </text>
       </g>
      </g>
      <g>
       <path d="M0,0v627" style="stroke: black; stroke-width: 1;"></path>
       <path d="M17,627h-17m9,-23h-9m9,-24h-9m9,-23h-9m9,-23h-9m17,-24h-17m9,-23h-9m9,-23h-9m9,-24h-9m9,-23h-9m17,-23h-17m9,-24h-9m9,-23h-9m9,-23h-9m9,-24h-9m17,-23h-17m9,-23h-9m9,-24h-9m9,-23h-9m9,-23h-9m17,-24h-17m9,-23h-9m9,-23h-9m9,-23h-9m9,-24h-9m17,-23h-17m9,-23h-9" style="stroke: black; stroke-width: 1;"></path>
       <g font-family="Arial" font-size="20" space="preserve">
        <text fill="black" text-anchor="end" dy=".4em" transform="translate(-3,627)">
         0
        </text>
        <text fill="black" text-anchor="end" dy=".4em" transform="translate(-3,510)">
         100
        </text>
        <text fill="black" text-anchor="end" dy=".4em" transform="translate(-3,394)">
         200
        </text>
        <text fill="black" text-anchor="end" dy=".4em" transform="translate(-3,277)">
         300
        </text>
        <text fill="black" text-anchor="end" dy=".4em" transform="translate(-3,160)">
         400
        </text>
        <text fill="black" text-anchor="end" dy=".4em" transform="translate(-3,44)">
         500
        </text>
       </g>
      </g>
     </g>
    </g>
    <g transform="translate(263,4)" font-family="Arial" font-size="28" space="preserve">
     <path d="M0,0h49v43h-49z" style="fill: none;"></path>
     <text fill="black" text-anchor="middle" dy=".4em" transform="translate(25,22)">
      st1
     </text>
    </g>
   </g>
  </svg>
 </g>
</svg>

<svg xmlns="http://www.w3.org/2000/svg" viewBox="0 0 1200 800" preserveAspectRatio="none" width="1200" height="800">
 <title>
  ROOT canvas
 </title>
 <path d="M0,0H1200V800H0Z" style="fill: white;"></path>
 <g>
  <svg viewBox="0 0 576 784" preserveAspectRatio="none" x="12" y="8" width="576" height="784">
   <path d="M0,0H576V784H0Z" style="fill: white;"></path>
   <g>
    <g transform="translate(58,78)">
     <title></title>
     <path d="M0,0H461V627H0Z" style="fill: white; stroke: black; stroke-width: 1;"></path>
     <svg x="0" y="0" overflow="hidden" width="461" height="627" viewBox="0 0 461 627">
      <g>
       <path d="M138,625h24M150,623v3M161,591h24M173,584v13M184,377h24M196,360v34M207,32h24M219,6v53M231,30h24M243,3v53M254,401h24M266,384v33M277,589h24M289,582v13M300,624h24M312,621v5M323,626h24M335,625v2" style="stroke: blue; stroke-width: 1;"></path>
      </g>
      <g>
       <path d="M138,626h24M150,625v2M161,604h24M173,598v11M184,463h24M196,449v27M207,241h24M219,220v42M231,214h24M243,192v44M254,481h24M266,468v26M277,599h24M289,593v12M300,624h24M312,621v5M323,626h24M335,625v2" style="stroke: rgb(204,0,255); stroke-width: 1;"></path>
      </g>
     </svg>
     <g>
      <g transform="translate(0,627)">
       <path d="M0,0h461" style="stroke: black; stroke-width: 1;"></path>
       <path d="M0,-24v24m12,-12v12m11,-12v12m12,-12v12m11,-24v24m12,-12v12m11,-12v12m12,-12v12m11,-24v24m12,-12v12m11,-12v12m12,-12v12m11,-24v24m12,-12v12m11,-12v12m12,-12v12m11,-24v24m12,-12v12m11,-12v12m12,-12v12m12,-24v24m11,-12v12m12,-12v12m11,-12v12m12,-24v24m11,-12v12m12,-12v12m11,-12v12m12,-24v24m11,-12v12m12,-12v12m11,-12v12m12,-24v24m11,-12v12m12,-12v12m11,-12v12m12,-24v24m11,-12v12m12,-12v12m11,-12v12m12,-24v24" style="stroke: black; stroke-width: 1;"></path>
       <g font-family="Arial" font-size="20" space="preserve">
        <text fill="black" text-anchor="middle" dy=".8em" transform="translate(0,5)">
         -10
        </text>
        <text fill="black" text-anchor="middle" dy=".8em" transform="translate(46,5)">
         -8
        </text>
        <text fill="black" text-anchor="middle" dy=".8em" transform="translate(92,5)">
         -6
        </text>
        <text fill="black" text-anchor="middle" dy=".8em" transform="translate(138,5)">
         -4
        </text>
        <text fill="black" text-anchor="middle" dy=".8em" transform="translate(184,5)">
         -2
        </text>
        <text fill="black" text-anchor="middle" dy=".8em" transform="translate(231,5)">
         0
        </text>
        <text fill="black" text-anchor="middle" dy=".8em" transform="translate(277,5)">
         2
        </text>
        <text fill="black" text-anchor="middle" dy=".8em" transform="translate(323,5)">
         4
        </text>
        <text fill="black" text-anchor="middle" dy=".8em" transform="translate(369,5)">
         6
        </text>
        <text fill="black" text-anchor="middle" dy=".8em" transform="translate(415,5)">
         8
        </text>
        <text fill="black" text-anchor="middle" dy=".8em" transform="translate(461,5)">
         10
        </text>
       </g>
      </g>
      <g>
       <path d="M0,0v627" style="stroke: black; stroke-width: 1;"></path>
       <path d="M17,627h-17m9,-23h-9m9,-24h-9m9,-23h-9m9,-23h-9m17,-24h-17m9,-23h-9m9,-23h-9m9,-24h-9m9,-23h-9m17,-23h-17m9,-24h-9m9,-23h-9m9,-23h-9m9,-24h-9m17,-23h-17m9,-23h-9m9,-24h-9m9,-23h-9m9,-23h-9m17,-24h-17m9,-23h-9m9,-23h-9m9,-23h-9m9,-24h-9m17,-23h-17m9,-23h-9" style="stroke: black; stroke-width: 1;"></path>
       <g font-family="Arial" font-size="20" space="preserve">
        <text fill="black" text-anchor="end" dy=".4em" transform="translate(-3,627)">
         0
        </text>
        <text fill="black" text-anchor="end" dy=".4em" transform="translate(-3,510)">
         100
        </text>
        <text fill="black" text-anchor="end" dy=".4em" transform="translate(-3,394)">
         200
        </text>
        <text fill="black" text-anchor="end" dy=".4em" transform="translate(-3,277)">
         300
        </text>
        <text fill="black" text-anchor="end" dy=".4em" transform="translate(-3,160)">
         400
        </text>
        <text fill="black" text-anchor="end" dy=".4em" transform="translate(-3,44)">
         500
        </text>
       </g>
      </g>
     </g>
    </g>
    <g transform="translate(263,4)" font-family="Arial" font-size="28" space="preserve">
     <path d="M0,0h49v43h-49z" style="fill: none;"></path>
     <text fill="black" text-anchor="middle" dy=".4em" transform="translate(25,22)">
      st1
     </text>
    </g>
   </g>
  </svg>
  <svg viewBox="0 0 576 784" preserveAspectRatio="none" x="612" y="8" width="576" height="784">
   <path d="M0,0H576V784H0Z" style="fill: white;"></path>
   <g>
    <g transform="translate(58,78)">
     <title></title>
     <path d="M0,0H461V627H0Z" style="fill: white; stroke: black; stroke-width: 1;"></path>
     <svg x="0" y="0" overflow="hidden" width="461" height="627" viewBox="0 0 461 627">
      <g>
       <path d="M0,627h138v-2h23v-34h23v-214h23v-345h24v-2h23v371h23v188h23v35h23v2h23v1h115L461,630L0,630Z" style="stroke-linejoin: miter; stroke: blue; stroke-width: 1; fill: blue;"></path>
      </g>
      <g>
       <path d="M0,627h138v-1h23v-22h23v-141h23v-222h24v-27h23v267h23v118h23v25h23v2h23v1h115L461,630L0,630Z" style="stroke-linejoin: miter; stroke: rgb(204,0,255); stroke-width: 1; fill: rgb(204,0,255);"></path>
      </g>
     </svg>
     <g>
      <g transform="translate(0,627)">
       <path d="M0,0h461" style="stroke: black; stroke-width: 1;"></path>
       <path d="M0,-24v24m12,-12v12m11,-12v12m12,-12v12m11,-24v24m12,-12v12m11,-12v12m12,-12v12m11,-24v24m12,-12v12m11,-12v12m12,-12v12m11,-24v24m12,-12v12m11,-12v12m12,-12v12m11,-24v24m12,-12v12m11,-12v12m12,-12v12m12,-24v24m11,-12v12m12,-12v12m11,-12v12m12,-24v24m11,-12v12m12,-12v12m11,-12v12m12,-24v24m11,-12v12m12,-12v12m11,-12v12m12,-24v24m11,-12v12m12,-12v12m11,-12v12m12,-24v24m11,-12v12m12,-12v12m11,-12v12m12,-24v24" style="stroke: black; stroke-width: 1;"></path>
       <g font-family="Arial" font-size="20" space="preserve">
        <text fill="black" text-anchor="middle" dy=".8em" transform="translate(0,5)">
         -10
        </text>
        <text fill="black" text-anchor="middle" dy=".8em" transform="translate(46,5)">
         -8
        </text>
        <text fill="black" text-anchor="middle" dy=".8em" transform="translate(92,5)">
         -6
        </text>
        <text fill="black" text-anchor="middle" dy=".8em" transform="translate(138,5)">
         -4
        </text>
        <text fill="black" text-anchor="middle" dy=".8em" transform="translate(184,5)">
         -2
        </text>
        <text fill="black" text-anchor="middle" dy=".8em" transform="translate(231,5)">
         0
        </text>
        <text fill="black" text-anchor="middle" dy=".8em" transform="translate(277,5)">
         2
        </text>
        <text fill="black" text-anchor="middle" dy=".8em" transform="translate(323,5)">
         4
        </text>
        <text fill="black" text-anchor="middle" dy=".8em" transform="translate(369,5)">
         6
        </text>
        <text fill="black" text-anchor="middle" dy=".8em" transform="translate(415,5)">
         8
        </text>
        <text fill="black" text-anchor="middle" dy=".8em" transform="translate(461,5)">
         10
        </text>
       </g>
      </g>
      <g>
       <path d="M0,0v627" style="stroke: black; stroke-width: 1;"></path>
       <path d="M17,627h-17m9,-23h-9m9,-24h-9m9,-23h-9m9,-23h-9m17,-24h-17m9,-23h-9m9,-23h-9m9,-24h-9m9,-23h-9m17,-23h-17m9,-24h-9m9,-23h-9m9,-23h-9m9,-24h-9m17,-23h-17m9,-23h-9m9,-24h-9m9,-23h-9m9,-23h-9m17,-24h-17m9,-23h-9m9,-23h-9m9,-23h-9m9,-24h-9m17,-23h-17m9,-23h-9" style="stroke: black; stroke-width: 1;"></path>
       <g font-family="Arial" font-size="20" space="preserve">
        <text fill="black" text-anchor="end" dy=".4em" transform="translate(-3,627)">
         0
        </text>
        <text fill="black" text-anchor="end" dy=".4em" transform="translate(-3,510)">
         100
        </text>
        <text fill="black" text-anchor="end" dy=".4em" transform="translate(-3,394)">
         200
        </text>
        <text fill="black" text-anchor="end" dy=".4em" transform="translate(-3,277)">
         300
        </text>
        <text fill="black" text-anchor="end" dy=".4em" transform="translate(-3,160)">
         400
        </text>
        <text fill="black" text-anchor="end" dy=".4em" transform="translate(-3,44)">
         500
        </text>
       </g>
      </g>
     </g>
    </g>
    <g transform="translate(263,4)" font-family="Arial" font-size="28" space="preserve">
     <path d="M0,0h49v43h-49z" style="fill: none;"></path>
     <text fill="black" text-anchor="middle" dy=".4em" transform="translate(25,22)">
      st1
     </text>
    </g>
   </g>
  </svg>
 </g>
</svg>
